X: 11122
T: VIOTTI'S CELEBRATED POLLACCA
Q: "Allegretto"
%R: triple hornpipe, minuet
B: "Edinburgh Repository of Music" v.1 p.112 #2 - p.113 #1
F: http://digital.nls.uk/special-collections-of-printed-music/pageturner.cfm?id=87776133
Z: 2015 John Chambers <jc:trillian.mit.edu>
N: The repeat symbols on both 1st and 2nd ending are puzzling; not fixed.
M: 3/4
L: 1/16
K: A
E2 |\
A2A2- AcBG A2c2 | ed B4 ec A2c2 |\
BG E4 FG ABcd | cdec BAGF E2 zE |\
A2A2- AcBG A2c2 |
ed B4 cd efga |\
ae c4 ec edBG |[1 (G8 A).E.F.G :|\
[2 (G8 A)EAc :|\
e2 e4 ag baec | ed d4 ba gfed |
ceag bagf edcB | BAGF E^DEG Be=dB |\
A2A2- AcBG A2c2 | ed B4 cd efga |\
ae c4 ec edBG | (G8 A2) |]
